X: 618
T:Les Filles de Saille
S:Kornog
D:Kornog: Kornog
Z:Chris Corrigan
M:12/8
L:1/8
N:Posted to the woodenflute mailing list January 2003
K:D
BAB|:f2 e f2 g f3 dcd | f2 e d2 c B3 BAB| f2 e f2 g f3 dcd |
f2 e d2 c B2 f f2 e | f2 f d2 c B2 f  f2 e | f2 f ddc B2 f  f2 e |
f2 f d2 c B2 f  f2 e | f2 f ddc B3 BAB :: f3 e2 f ^g2 f e2 d |
e2 f f2 d e3 ede | f3 e2 f b2 f e2 d | e2 f f2 d e3 f2 d |
B3 d2 c B2 A f2 d | B2 d cBA B3 f2 d | B3 d2 c B2 A f2 d |
B2 d cBA B3 BAB :|
<end>
<start>
